src/images/fb.svg

<svg width="24" height="24" fill="none" xmlns="http://www.w3.org/2000/svg"><g clip-path="url(#clip0)"><path d="M20.8958 2H3.10417C2.49417 2 2 2.49417 2 3.10417V20.8967C2 21.5058 2.49417 22 3.10417 22h9.57913v-7.745h-2.6066v-3.0183h2.6066V9.01083c0-2.58333 1.5775-3.99 3.8825-3.99 1.1042 0 2.0525.0825 2.3292.11917v2.7l-1.5983.00083c-1.2534 0-1.4959.59584-1.4959 1.46917v1.9275H18.79l-.3892 3.0183h-2.6V22h5.0967C21.5058 22 22 21.5058 22 20.8958V3.10417C22 2.49417 21.5058 2 20.8958 2z" fill="#000"/></g><defs><clipPath id="clip0"><path fill="#fff" transform="translate(2 2)" d="M0 0h20v20H0z"/></clipPath></defs></svg>

<svg width="24" height="24" viewBox="0 0 24 24" fill="none" xmlns="http://www.w3.org/2000/svg">
<g clip-path="url(#clip0)">
<path d="M20.8958 2H3.10417C2.49417 2 2 2.49417 2 3.10417V20.8967C2 21.5058 2.49417 22 3.10417 22H12.6833V14.255H10.0767V11.2367H12.6833V9.01083C12.6833 6.4275 14.2608 5.02083 16.5658 5.02083C17.67 5.02083 18.6183 5.10333 18.895 5.14V7.84L17.2967 7.84083C16.0433 7.84083 15.8008 8.43667 15.8008 9.31V11.2375H18.79L18.4008 14.2558H15.8008V22H20.8975C21.5058 22 22 21.5058 22 20.8958V3.10417C22 2.49417 21.5058 2 20.8958 2V2Z" fill="black"/>
</g>
<defs>
<clipPath id="clip0">
<rect width="20" height="20" fill="white" transform="translate(2 2)"/>
</clipPath>
</defs>
</svg>
